images/tickets-icon.svg

<svg width="16" height="16" viewBox="0 0 16 16" fill="none" xmlns="http://www.w3.org/2000/svg">
<path d="M3.55556 5.33332H12.4444V10.6667H3.55556V5.33332ZM14.6667 7.99999C14.6667 8.73638 15.2636 9.33332 16 9.33332V12C16 12.7364 15.4031 13.3333 14.6667 13.3333H1.33333C0.596944 13.3333 0 12.7364 0 12V9.33332C0.736389 9.33332 1.33333 8.73638 1.33333 7.99999C1.33333 7.2636 0.736389 6.66666 0 6.66666V3.99999C0 3.2636 0.596944 2.66666 1.33333 2.66666H14.6667C15.4031 2.66666 16 3.2636 16 3.99999V6.66666C15.2636 6.66666 14.6667 7.2636 14.6667 7.99999ZM13.3333 5.1111C13.3333 4.74291 13.0349 4.44443 12.6667 4.44443H3.33333C2.96514 4.44443 2.66667 4.74291 2.66667 5.1111V10.8889C2.66667 11.2571 2.96514 11.5555 3.33333 11.5555H12.6667C13.0349 11.5555 13.3333 11.2571 13.3333 10.8889V5.1111Z" fill="#DDE2FF"/>
</svg>

<svg width="16" height="16" fill="none" xmlns="http://www.w3.org/2000/svg"><path d="M3.556 5.333h8.888v5.334H3.556V5.333ZM14.666 8c0 .736.598 1.333 1.334 1.333V12c0 .736-.597 1.333-1.333 1.333H1.333A1.333 1.333 0 0 1 0 12V9.333a1.333 1.333 0 1 0 0-2.666V4c0-.736.597-1.333 1.333-1.333h13.334C15.403 2.667 16 3.264 16 4v2.667c-.736 0-1.333.597-1.333 1.333Zm-1.333-2.889a.667.667 0 0 0-.666-.667H3.333a.667.667 0 0 0-.666.667v5.778c0 .368.298.667.666.667h9.334a.667.667 0 0 0 .666-.667V5.11Z" fill="#DDE2FF"/></svg>
